svg/color/armon.svg

<svg width="40" height="40" viewBox="0 0 40 40" fill="none" xmlns="http://www.w3.org/2000/svg">
<g clip-path="url(#clip0_819_3709)">
<path d="M20 0C31.0457 0 40 8.9543 40 20C40 31.0457 31.0457 40 20 40C8.95431 40 7.90517e-06 31.0457 0 20C6.58765e-07 8.95431 8.95431 1.97595e-06 20 0Z" fill="#CCE9F2"/>
<path d="M26 6C30.4183 6 34 9.58172 34 14V26C34 30.4183 30.4183 34 26 34H14C9.58172 34 6 30.4183 6 26V14C6 9.58172 9.58172 6 14 6H26Z" fill="#0091BD"/>
<g clip-path="url(#clip1_819_3709)">
<path d="M14.5157 17.1117H15.8607V22.8708H14.5157V22.2708C13.924 22.9558 13.2048 23.0483 12.7907 23.0483C11.0148 23.0483 9.99982 21.5683 9.99982 19.9875C9.99982 18.11 11.2848 16.96 12.8082 16.96C13.2307 16.96 13.9748 17.07 14.5157 17.78V17.1117ZM11.3782 20.0208C11.3782 21.0192 12.004 21.8558 12.9765 21.8558C13.8223 21.8558 14.609 21.2392 14.609 20.0383C14.609 18.7783 13.8307 18.1775 12.9765 18.1775C12.004 18.1692 11.3782 18.9892 11.3782 20.0208ZM17.459 17.1125H18.8032V17.6275C18.9644 17.4402 19.1526 17.2779 19.3615 17.1458C19.6232 16.9933 19.8773 16.9517 20.1815 16.9517C20.5115 16.9517 20.8665 17.0017 21.239 17.2217L20.689 18.44C20.4868 18.3038 20.2477 18.2329 20.004 18.2367C19.7165 18.2367 19.429 18.2783 19.1665 18.55C18.7948 18.9475 18.7948 19.4967 18.7948 19.8775V22.8625H17.4498L17.459 17.1125ZM22.0923 17.1125H23.4373V17.645C23.8856 17.095 24.4181 16.96 24.8581 16.96C25.4581 16.96 26.0248 17.2475 26.3465 17.8058C26.829 17.1208 27.5473 16.96 28.0548 16.96C28.7565 16.96 29.3656 17.29 29.6956 17.865C29.8056 18.0592 29.9998 18.4817 29.9998 19.3192V22.8792H28.6548V19.7083C28.6548 19.0658 28.5881 18.8033 28.5281 18.685C28.444 18.465 28.2407 18.1775 27.759 18.1775C27.429 18.1775 27.1415 18.355 26.964 18.6008C26.7273 18.93 26.7015 19.4208 26.7015 19.9108V22.8792H25.3582V19.7083C25.3582 19.0658 25.2906 18.8033 25.2315 18.685C25.1465 18.465 24.944 18.1775 24.4615 18.1775C24.1315 18.1775 23.8448 18.355 23.6665 18.6008C23.4298 18.93 23.4048 19.4208 23.4048 19.9108V22.8792H22.094L22.0923 17.1125Z" fill="white"/>
</g>
</g>
<defs>
<clipPath id="clip0_819_3709">
<rect width="40" height="40" fill="white"/>
</clipPath>
<clipPath id="clip1_819_3709">
<rect width="20" height="20" fill="white" transform="translate(10 10)"/>
</clipPath>
</defs>
</svg>

<svg xmlns="http://www.w3.org/2000/svg" width="40" height="40" fill="none" viewBox="0 0 40 40"><g clip-path="url(#armon_svg-a)"><path fill="#CCE9F2" d="M20 0c11.046 0 20 8.954 20 20s-8.954 20-20 20S0 31.046 0 20 8.954 0 20 0"/><path fill="#0091BD" d="M26 6a8 8 0 0 1 8 8v12a8 8 0 0 1-8 8H14a8 8 0 0 1-8-8V14a8 8 0 0 1 8-8z"/><g clip-path="url(#armon_svg-b)"><path fill="#fff" d="M14.516 17.112h1.345v5.759h-1.345v-.6c-.592.685-1.311.777-1.725.777-1.776 0-2.791-1.48-2.791-3.06 0-1.878 1.285-3.028 2.808-3.028.423 0 1.167.11 1.708.82zm-3.138 2.909c0 .998.626 1.835 1.598 1.835.846 0 1.633-.617 1.633-1.818 0-1.26-.778-1.86-1.633-1.86-.972-.009-1.598.811-1.598 1.843m6.081-2.908h1.344v.515c.161-.188.35-.35.558-.482.262-.153.516-.194.82-.194.33 0 .685.05 1.058.27l-.55 1.218a1.2 1.2 0 0 0-.685-.203c-.288 0-.575.041-.838.313-.371.398-.371.947-.371 1.328v2.985H17.45zm4.633 0h1.345v.532c.449-.55.981-.685 1.421-.685.6 0 1.167.287 1.488.846.483-.685 1.201-.846 1.709-.846.701 0 1.31.33 1.64.905.11.194.305.617.305 1.454v3.56h-1.345v-3.17c0-.643-.067-.906-.127-1.024-.084-.22-.287-.508-.769-.508a.99.99 0 0 0-.795.424c-.237.329-.262.82-.262 1.31v2.968h-1.344v-3.17c0-.643-.067-.906-.127-1.024-.085-.22-.287-.508-.77-.508a1 1 0 0 0-.794.424c-.237.329-.262.82-.262 1.31v2.968h-1.311z"/></g></g><defs><clipPath id="armon_svg-a"><path fill="#fff" d="M0 0h40v40H0z"/></clipPath><clipPath id="armon_svg-b"><path fill="#fff" d="M10 10h20v20H10z"/></clipPath></defs></svg>
